!!!SOCIAL_FUNCTION:	dream songs
!!!PDT:	1913
!!!OTL: No_137_Dream_Song.krn
!!!REG: Great_Lakes
!!!LANG: Non-Tone
!!!LING_GROUP: Algonquin
**kern	**kern
*staff2	*staff1
=1-	=1-
*clefF4	*clefG2
*k[f#c#g#d#a#]	*k[f#c#g#d#a#]
*M2/4	*M2/4
12GG#^/	8g#/L
12r	.
.	8g#/J
12GG#/	.
12GG#^/	8g#/L
12r	.
.	8f#/J
12GG#/	.
=2	=2
2r	4.d#/
.	8g#/
=3	=3
2r	4.f#/
.	16g#/LL
.	16f#/JJ
=4	=4
2r	8d#/L
.	8d#/J
.	[4d#/
=5||	=5||
*M3/4	*M3/4
2.r	2d#/]
.	4d#/
=6||	=6||
*M2/4	*M2/4
2r	8.f#/L
.	16f#/Jk
.	4f#/
=7||	=7||
*M3/4	*M3/4
2.r	4d#/
.	4f#/
.	4d#/
*	*clefF4
=8||	=8||
*M2/4	*M2/4
2r	8B\L
.	8B\J
.	4G#\
=9	=9
2r	8d#\L
.	8d#\J
.	8.B\L
.	16d#\Jk
=10	=10
2r	8B\L
.	8B\J
.	8G#\L
.	8G#\J
=11	=11
2r	[2G#\
=12	=12
2r	4G#\]
.	4G#\
=13	=13
2r	8D#\L
.	8D#\J
.	8D#\L
.	8G#\J
=14	=14
2r	4F#\
.	8F#\L
.	8G#\J
=15||	=15||
*M3/4	*M3/4
2.r	8D#\L
.	8D#\J
.	4.D#\
.	8D#\
=16||	=16||
*M2/4	*M2/4
2r	[2D#\
=17	=17
2r	4D#\]
*	*clefG2
.	4d#/
=18	=18
2r	8.f#/L
.	16f#/Jk
.	4f#/
=19||	=19||
*M3/4	*M3/4
2.r	4d#/
.	4f#/
.	4d#/
=20||	=20||
*M2/4	*M2/4
2r	8B/L
.	8B/J
.	4G#/
=21	=21
2r	8d#/L
.	8d#/J
.	8.B/L
.	16d#/Jk
*	*clefF4
=22	=22
2r	8B\L
.	8B\J
.	8G#\L
.	8G#\J
=23	=23
2r	[2G#\
=24	=24
2r	4G#\]
.	4G#\
=25	=25
2r	8D#\L
.	8D#\J
.	8D#\L
.	8G#\J
=26	=26
2r	4F#\
.	8F#\L
.	8G#\J
=27	=27
2r	8D#\L
.	8D#\J
.	4D#\
=28	=28
2r	2D#\
==	==
*-	*-
